Origami/64x64/apps/skanlite.svg

<svg width="64" height="64" version="1" xmlns="http://www.w3.org/2000/svg">
 <rect x="10.66" y="6.66" width="42.666" height="48" style="fill:#cccccc"/>
 <rect x="12" y="18" width="40" height="2" rx="0" ry="0" style="fill:#f34235"/>
 <path d="m12.0002 9v2h40v-2h-40zm-6 45.398v2c0 1.44 1.1612 2.602 2.6016 2.602h46.796c1.44 0 2.602-1.162 2.602-2.602v-2c0 1.44-1.162 2.602-2.602 2.602h-46.796c-1.4408 0-2.602-1.162-2.602-2.602z" style="opacity:.2"/>
 <path d="m8.6002 6c-1.4404 0-2.6 1.1596-2.6 2.6v46.8c0 1.4404 1.1596 2.6 2.6 2.6h46.8c1.44 0 2.6-1.16 2.6-2.6v-46.8c0-1.4404-1.1596-2.6-2.6-2.6zm3.4 4h40v44h-40z" style="fill:#4f4f4f"/>
 <path d="m8.6015625 6c-1.4404 0-2.6015625 1.1611625-2.6015625 2.6015625v1c0-1.4404 1.1611625-2.6015625 2.6015625-2.6015625h46.796876c1.439999 0 2.601562 1.1611625 2.601562 2.6015625v-1c0-1.4404-1.161563-2.6015625-2.601562-2.6015625h-46.796876zm3.3984375 48v1h40v-1h-40z" style="fill:#ffffff;opacity:.1"/>
</svg>

<svg xmlns="http://www.w3.org/2000/svg" width="64" height="64" version="1">
 <rect style="fill:#cccccc" width="42.666" height="48" x="10.66" y="6.66"/>
 <rect style="fill:#f34235" width="40" height="2" x="12" y="18" rx="0" ry="0"/>
 <path style="opacity:0.2" d="m 12.0002,9 0,2 40,0 0,-2 -40,0 z m -6,45.398 0,2 c 0,1.44 1.1612,2.602 2.6016,2.602 l 46.796,0 c 1.44,0 2.602,-1.162 2.602,-2.602 l 0,-2 c 0,1.44 -1.162,2.602 -2.602,2.602 L 8.6018,57 C 7.161,57 5.9998,55.838 5.9998,54.398 Z"/>
 <path style="fill:#4f4f4f" d="m 8.6002,6 c -1.4404,0 -2.6,1.1596 -2.6,2.6 l 0,46.8 c 0,1.4404 1.1596,2.6 2.6,2.6 l 46.8,0 c 1.44,0 2.6,-1.16 2.6,-2.6 l 0,-46.8 c 0,-1.4404 -1.1596,-2.6 -2.6,-2.6 z m 3.4,4 40,0 0,44 -40,0 z"/>
 <path style="opacity:0.1;fill:#ffffff" d="M 8.6015625 6 C 7.1611625 6 6 7.1611625 6 8.6015625 L 6 9.6015625 C 6 8.1611625 7.1611625 7 8.6015625 7 L 55.398438 7 C 56.838437 7 58 8.1611625 58 9.6015625 L 58 8.6015625 C 58 7.1611625 56.838437 6 55.398438 6 L 8.6015625 6 z M 12 54 L 12 55 L 52 55 L 52 54 L 12 54 z"/>
</svg>
